X:24
T:The Road Home
C:Grace Fellows
L:1/8
M:3/4
K:D
"D" FG A3 F |"Bm" E2 D4 |"G" Bc d3 B |"F#m" A6 |$"D" FG A3 F |"Bm" E2 D4 |"G" B,2 D2 F2 |"A" E6 |$ %8
"D" FG A3 F |"Bm" E2 D4 |"G" Bc d3 B |"Em" e6 |$"Bm" fe d3 B |"F#m" A2 F4 |"G" G2 A2 B2 |"A" E6 |$ %16
"Bm" FD B,A, B,D |"G" FD B,A, B,D |"Em" FD B,A, B,D |"F#m" F2 E4 |$"D" AF DC DF |"Bm" AF DC DF | %22
"G" AF DC DF |"A" A2 E4 |$"Bm" FD B,A, B,D |"G" FD B,A, B,D |"Em" FD B,A, B,D |"F#m" F2 E4 |$ %28
"D" AF DC DF |"Bm" D2 C4 |"G" B,3 C D2 |"A" C6 ||"D""^Last Time" D6 |] %33

